X:43
T:Steyrer Tanz - Clarinetto - in C, nr. 6
C:traditionell
R:Steirer
A:Hallstatt, Salzkammergut
B:Corpus Musicae Popularis Austriacae (COMPA), 5.Band: J.M.Schmalnauer " Tanz Musik", Verlag Boehlau, Wien 1996
S:manuscript des Johann Michael Schmalnauer um 1820
N:im der quelle in C
N:um1800
N:in der Handschrift keine 2 .Stimme
M:3/4
L:1/8
K:C
g2 dfed | ceGe c2 | d^fac'ba | gbdb g2 |\
= f2 dagf | egcg e2 | fGfGBd | c4 :|
ce |\
fGfG Bd | ceGe c2 | bdbd gb | c'geg ce |\
fGfG Bd | ceGe c2 | bdbd gb | c'4 :|
